X:1
T:Title
%%score { ( 1 3 4 ) | ( 2 5 ) }
L:1/8
M:4/4
K:Eb
V:1 treble nm="Grand Piano"
V:3 treble 
V:4 treble 
V:2 bass 
V:5 bass 
V:1
 z8[Q:1/4=106] | [CF]4 [C=E]4 | [CE]2 c2 c>E D>E | [CF]2 [A,CF]2 [CA]2 [A,CF]2 | [_DG]4 z4 | %5
 F2 F2 G2 B2 | AB c4 c>c | [GB]3 [GB] [Ac]2 [Ad]2 | [Ge]4 z z/ e/ e>d | [G_d]4 [_DG]4 | %10
 [CB]2 A2 c>c c>c | [=Ec]4 z4 | F4 z4 | [_DFA]2 [DFA]2 [DFB]2 [=DA=B]2 | %14
 [EAc]2 [EAe]2 [Af]2 [EAe]2 | [DAc]4 [GB]4 | %16
[M:11/16] [A,CEA]/-[A,CEA]/-[A,CEA]/-[A,CEA]/-[A,CEA]-<[A,CEA] z/ z |] %17
V:2
 z4 z z/ E/ D>E | A,,2 E,2 E,,2 E,2 | A,,2 [E,A,E]2 [E,A,E]2 z2 | A,,2 E,2 C,2 E,2 | %4
 B,,2 E,2 E,2 z2 | [E,G,_D]2 [E,G,D]2 [E,B,D]2 [E,G,D]2 | [F,C][F,G,=E] [F,A,F]4 [F,A,F]>[F,A,F] | %7
 [B,,B,]3 [B,,B,] [B,,B,]2 [B,,B,]2 | [E,B,]4 z z/[K:treble] G/ G>G | E,2 G,2 E,2 G,2 | %10
 A,,2 [E,A,C]2 [E,A,E]>E E>E | z2 G,2 z4 | F,2 A,2 A,>[K:treble]F =E>F | _D,2 D,2 F,2 =E,2 | %14
 E,2 C,2 [_D,_D]2 C,2 | B,,4 z2 _D2 |[M:11/16] A,,/-A,,/-A,,/-A,,/-A,,-<A,, z/ z |] %17
V:3
 x8 | z2 A,2 z2 A,2 | x8 | x8 | z2 B,2 B,>E =D>E | x8 | x8 | x8 | x8 | z2 B,2 z2 B,2 | x8 | %11
 z2 z G [=EA]2 [CEG]2 | z2 C2 C2 z2 | x8 | x8 | z4 E2 z2 |[M:11/16] x11/2 |] %17
V:4
 x8 | x8 | x8 | x8 | x8 | x8 | x8 | x8 | x8 | x8 | x8 | z2 C2 z4 | x8 | x8 | x8 | x8 | %16
[M:11/16] x11/2 |] %17
V:5
 x8 | x8 | x8 | x8 | x8 | x8 | x8 | x8 | x11/2[K:treble] x5/2 | x8 | x8 | C,2 z =E C,2 G,2 | %12
 x11/2[K:treble] x5/2 | x8 | x8 | z4 E,4 |[M:11/16] x11/2 |] %17

